schedule/images/Coffee.svg

<svg width="20" height="20" viewBox="0 0 20 20" fill="none" xmlns="http://www.w3.org/2000/svg">
<path fill-rule="evenodd" clip-rule="evenodd" d="M3.53799 8.63904C3.58059 8.65304 3.59299 8.65404 3.63079 8.67864C3.68759 8.71564 3.73039 8.77284 3.74999 8.83764C3.76419 8.88464 3.76399 8.89444 3.76139 8.95124C3.72559 9.83084 3.84239 10.724 4.05459 11.575C4.25659 12.3842 4.56479 13.1646 5.02599 13.863C5.17299 14.0854 5.33139 14.2942 5.51739 14.503C5.53259 14.52 5.54779 14.537 5.56319 14.5538C6.02079 15.053 6.56859 15.4446 7.13159 15.7124C8.03099 16.1402 9.01119 16.2952 9.99859 16.2952L10.049 16.2996C10.0654 16.304 10.082 16.307 10.098 16.3128C10.225 16.359 10.3082 16.502 10.2846 16.636C10.264 16.7528 10.166 16.8508 10.049 16.8714C10.0324 16.8744 10.0154 16.8746 9.99859 16.8758C9.99819 16.876 9.97819 16.8758 9.97779 16.8758C9.36779 16.8748 8.76999 16.8186 8.16559 16.679C7.52739 16.5316 6.91919 16.2948 6.36519 15.9582C6.07019 15.779 5.79259 15.573 5.53519 15.3422C4.89239 14.7656 4.38699 14.0346 4.02759 13.2566C3.99899 13.195 3.97139 13.133 3.94459 13.0708L3.93959 13.0592C3.61659 12.3052 3.40799 11.5048 3.28919 10.6832C3.21039 10.138 3.16619 9.60044 3.17819 9.02404C3.17899 8.98544 3.18019 8.94664 3.18219 8.90804V8.90584C3.18859 8.86164 3.18739 8.84944 3.20519 8.80764C3.23819 8.73044 3.30659 8.66864 3.38779 8.64404C3.43119 8.63084 3.44319 8.63344 3.48799 8.63184C3.50459 8.63424 3.52139 8.63664 3.53799 8.63904Z" fill="black"/>
<path fill-rule="evenodd" clip-rule="evenodd" d="M16.5598 8.63364C16.6036 8.64284 16.616 8.64244 16.6564 8.66284C16.7168 8.69344 16.7656 8.74544 16.7922 8.80764C16.8116 8.85344 16.8132 8.86304 16.8158 8.92124C16.8366 9.40864 16.8036 9.89164 16.75 10.3604C16.7162 10.6544 16.6712 10.9452 16.6132 11.2364C16.4676 11.9674 16.2528 12.6636 15.9316 13.3378C15.635 13.9608 15.2562 14.532 14.791 15.0224C14.7604 15.0544 14.7296 15.086 14.6984 15.1176C14.6984 15.1176 14.6696 15.1466 14.6484 15.1674C14.298 15.5116 13.8894 15.8148 13.4876 16.0432C12.8944 16.38 12.2354 16.6052 11.5866 16.731C11.0584 16.8334 10.517 16.875 10.009 16.8758C10.009 16.8758 9.9748 16.8762 9.9482 16.8714C9.815 16.848 9.7084 16.7216 9.7084 16.5856C9.7084 16.4504 9.8142 16.3232 9.9482 16.2996C9.9876 16.2926 10.0276 16.2952 10.0676 16.295C11.0082 16.288 11.9566 16.131 12.8076 15.7394C13.2734 15.5252 13.7024 15.2434 14.0744 14.9098C14.6138 14.4262 15.0596 13.8046 15.3868 13.1308C15.3972 13.1094 15.4074 13.0878 15.4176 13.0664L15.4226 13.0558C15.8274 12.1922 16.0626 11.267 16.174 10.2858C16.2248 9.83844 16.2578 9.38764 16.2354 8.93844L16.2352 8.93764C16.2368 8.89304 16.2342 8.88084 16.2474 8.83764C16.2718 8.75664 16.3332 8.68804 16.4112 8.65484C16.4528 8.63704 16.465 8.63824 16.5092 8.63184C16.5262 8.63244 16.543 8.63304 16.5598 8.63364Z" fill="black"/>
<path fill-rule="evenodd" clip-rule="evenodd" d="M10.0412 7.32996C11.3558 7.33236 12.675 7.39976 13.9772 7.59656C14.0348 7.60536 14.0924 7.61436 14.1498 7.62356C14.7418 7.71916 15.3332 7.83536 15.8966 8.05136C16.0932 8.12676 16.2862 8.21416 16.4578 8.33756C16.5004 8.36836 16.5418 8.40136 16.5802 8.43736L16.5828 8.43976C16.5966 8.45296 16.6102 8.46636 16.6232 8.48016C16.6232 8.48016 16.6392 8.49716 16.65 8.50976C16.686 8.55136 16.718 8.59656 16.744 8.64516C16.744 8.64516 16.7564 8.66836 16.766 8.69016L16.7678 8.69436L16.7712 8.70256C16.784 8.73416 16.7948 8.76676 16.802 8.79996C16.802 8.79996 16.8106 8.84096 16.8134 8.87376C16.8184 8.93056 16.8146 8.98816 16.802 9.04336C16.802 9.04336 16.7886 9.09976 16.7694 9.14496C16.7694 9.14496 16.7592 9.16896 16.7484 9.18996C16.7484 9.18996 16.7254 9.23296 16.7018 9.26696C16.6812 9.29676 16.6582 9.32516 16.6338 9.35196C16.6338 9.35196 16.6118 9.37576 16.5894 9.39736C16.5894 9.39736 16.553 9.43176 16.517 9.46076C16.517 9.46076 16.4654 9.50156 16.423 9.53016C16.1662 9.70336 15.8664 9.81236 15.5716 9.90356C15.1686 10.0284 14.7556 10.1158 14.3332 10.1892C12.7668 10.461 11.164 10.531 9.576 10.5108C8.8488 10.5016 8.1224 10.4692 7.3978 10.407C6.5528 10.3342 5.7166 10.23 4.895 10.0316C4.5532 9.94896 4.214 9.85156 3.8964 9.70676C3.7422 9.63656 3.5916 9.55456 3.4626 9.44616C3.4626 9.44616 3.4426 9.42936 3.4286 9.41656C3.3588 9.35336 3.2974 9.28056 3.2532 9.19816L3.24 9.17196C3.231 9.15276 3.22 9.12576 3.22 9.12576C3.1766 9.00916 3.1696 8.88036 3.206 8.75896C3.207 8.75596 3.2078 8.75276 3.2088 8.74976C3.2156 8.72836 3.2244 8.70676 3.2244 8.70676C3.2286 8.69656 3.2342 8.68356 3.2342 8.68356C3.241 8.66896 3.251 8.64956 3.251 8.64956C3.2816 8.59236 3.3198 8.53916 3.3636 8.49156C3.3636 8.49156 3.4066 8.44596 3.4432 8.41376C3.6166 8.26136 3.8304 8.15936 4.0428 8.07416C4.5696 7.86276 5.1308 7.74596 5.6942 7.64916C6.7504 7.46756 7.8214 7.38516 8.8742 7.34916C9.2636 7.33576 9.6524 7.32976 10.0412 7.32996ZM3.7644 8.92096C3.761 8.92776 3.7744 8.93956 3.785 8.95196C3.8876 9.07296 4.0418 9.13696 4.1736 9.19476C4.3114 9.25496 4.4538 9.30456 4.5974 9.34896C4.5974 9.34896 4.6398 9.36196 4.6802 9.37376C5.6272 9.65156 6.6258 9.76216 7.5746 9.83896C9.1142 9.96356 10.6834 9.96696 12.2206 9.85456C13.0816 9.79156 13.9464 9.69476 14.7922 9.50736C14.9792 9.46576 15.1634 9.41956 15.3488 9.36436L15.3592 9.36136C15.6092 9.28576 15.8606 9.20436 16.0844 9.05796C16.1408 9.02096 16.2028 8.98456 16.2332 8.92216C16.2332 8.92216 16.2168 8.89516 16.199 8.87676C16.1092 8.78336 15.9866 8.72296 15.8672 8.66836C15.458 8.48036 15.0118 8.37796 14.5694 8.28916C13.6442 8.10336 12.7042 8.01256 11.768 7.95956C10.4742 7.88636 9.1708 7.89236 7.8884 7.98096C6.9588 8.04516 6.0328 8.14416 5.117 8.35616C4.753 8.44036 4.392 8.53476 4.0558 8.70396C3.9544 8.75496 3.8492 8.80916 3.779 8.89876C3.7734 8.90576 3.7684 8.91316 3.7644 8.92096ZM3.762 8.91676C3.762 8.91676 3.7618 8.91656 3.762 8.91676V8.91676Z" fill="black"/>
<path fill-rule="evenodd" clip-rule="evenodd" d="M8.66461 1C8.68121 1.003 8.69821 1.0046 8.71441 1.009C8.76361 1.0222 8.80881 1.0486 8.84441 1.0844C8.87981 1.1198 8.90421 1.1624 8.93141 1.2032C9.19201 1.5946 9.39241 2.04 9.35981 2.508C9.33241 2.9012 9.11801 3.2626 8.91221 3.5582C8.70781 3.8518 8.47581 4.1524 8.49641 4.5288C8.51441 4.8598 8.69261 5.165 8.87721 5.4308L8.90241 5.4748C8.90801 5.4906 8.91521 5.506 8.91941 5.5224C8.94981 5.637 8.90201 5.7672 8.80441 5.835C8.69341 5.912 8.52861 5.8976 8.43281 5.801C8.37661 5.7444 8.33841 5.6724 8.29481 5.6034C8.19981 5.4528 8.11501 5.2956 8.04941 5.131C8.04941 5.131 8.03241 5.0886 8.01821 5.0484C7.91901 4.7682 7.88401 4.4642 7.94721 4.1712C7.98041 4.017 8.03821 3.8694 8.11221 3.7298C8.11221 3.7298 8.12861 3.6988 8.14321 3.6728C8.28661 3.4178 8.47781 3.194 8.62481 2.9342C8.73881 2.733 8.81041 2.5064 8.77001 2.2538C8.72461 1.9688 8.57461 1.7072 8.40901 1.4672L8.40061 1.4554L8.37541 1.4116C8.36021 1.3694 8.35341 1.3592 8.34961 1.314C8.33941 1.196 8.40881 1.076 8.51661 1.026C8.55761 1.0068 8.56981 1.0076 8.61401 1C8.63081 1 8.64781 1 8.66461 1Z" fill="black"/>
<path fill-rule="evenodd" clip-rule="evenodd" d="M10.0244 1C10.041 1.003 10.058 1.0046 10.0742 1.009C10.1234 1.0222 10.1686 1.0486 10.2042 1.0844C10.2396 1.1198 10.2642 1.1624 10.2914 1.2032C10.552 1.5946 10.7522 2.04 10.7196 2.508C10.6922 2.9012 10.4778 3.2626 10.2722 3.5582C10.0678 3.8518 9.8356 4.1524 9.8562 4.5288C9.8744 4.8598 10.0524 5.165 10.237 5.4308L10.2622 5.4748C10.2736 5.5066 10.2852 5.5386 10.288 5.5722C10.2992 5.707 10.2042 5.8424 10.0728 5.8772C9.9746 5.903 9.8642 5.8732 9.7926 5.801C9.7364 5.7444 9.6982 5.6724 9.6548 5.6034C9.5596 5.4528 9.4748 5.2956 9.4092 5.131C9.4092 5.131 9.3922 5.0886 9.378 5.0484C9.2788 4.7682 9.2438 4.4642 9.307 4.1712C9.3402 4.017 9.398 3.8694 9.472 3.7298C9.472 3.7298 9.4884 3.6988 9.5032 3.6728C9.6464 3.4178 9.8376 3.194 9.9846 2.9342C10.0986 2.733 10.1702 2.5064 10.13 2.2538C10.0844 1.9688 9.9346 1.7072 9.7688 1.4672L9.7606 1.4554L9.7352 1.4116C9.72 1.3694 9.7132 1.3592 9.7094 1.314C9.6992 1.196 9.7686 1.076 9.8764 1.026C9.9174 1.0068 9.9298 1.0076 9.9738 1C9.9908 1 10.0076 1 10.0244 1Z" fill="black"/>
<path fill-rule="evenodd" clip-rule="evenodd" d="M11.3842 1C11.401 1.003 11.4178 1.0046 11.4342 1.009C11.4832 1.0222 11.5284 1.0486 11.5642 1.0844C11.5994 1.1198 11.624 1.1624 11.6512 1.2032C11.9118 1.5946 12.112 2.04 12.0794 2.508C12.052 2.9012 11.8378 3.2626 11.632 3.5582C11.4276 3.8518 11.1954 4.1524 11.216 4.5288C11.2342 4.8598 11.4122 5.165 11.597 5.4308L11.622 5.4748C11.6336 5.5066 11.645 5.5386 11.6478 5.5722C11.659 5.707 11.564 5.8424 11.4326 5.8772C11.3344 5.903 11.224 5.8732 11.1524 5.801C11.0964 5.7444 11.058 5.6724 11.0146 5.6034C10.9194 5.4528 10.8346 5.2956 10.769 5.131C10.769 5.131 10.7522 5.0886 10.7378 5.0484C10.6386 4.7682 10.6036 4.4642 10.6668 4.1712C10.7002 4.017 10.7578 3.8694 10.832 3.7298C10.832 3.7298 10.8484 3.6988 10.863 3.6728C11.0064 3.4178 11.1974 3.194 11.3446 2.9342C11.4586 2.733 11.5302 2.5064 11.4898 2.2538C11.4442 1.9688 11.2944 1.7072 11.1286 1.4672L11.1204 1.4554L11.0952 1.4116C11.08 1.3694 11.073 1.3592 11.0692 1.314C11.0592 1.1972 11.128 1.0762 11.2362 1.026C11.2774 1.0068 11.2896 1.0076 11.3336 1C11.3506 1 11.3674 1 11.3842 1Z" fill="black"/>
<path fill-rule="evenodd" clip-rule="evenodd" d="M4.42 13.4318L4.762 13.9208C4.6174 13.9798 4.4758 14.0428 4.339 14.1092C3.9932 14.2776 3.6594 14.4744 3.3702 14.7318C3.1748 14.9058 2.9976 15.1084 2.8966 15.3492C2.7956 15.5906 2.7938 15.8688 2.8966 16.1142C3.0366 16.448 3.3162 16.7072 3.59 16.9092C4.0366 17.2386 4.5542 17.4736 5.0662 17.6598C5.9954 17.9978 6.9784 18.1928 7.9648 18.3056C8.4394 18.36 8.9218 18.3942 9.398 18.4098C10.2888 18.439 11.2012 18.4034 12.087 18.2994C12.8186 18.2134 13.5454 18.0792 14.253 17.878C14.5632 17.79 14.8674 17.689 15.1666 17.5704C15.4814 17.4456 15.7874 17.3018 16.0764 17.1286C16.318 16.9838 16.547 16.82 16.7464 16.6188C16.8724 16.4916 16.9834 16.3518 17.065 16.1912C17.1814 15.9618 17.216 15.6948 17.1346 15.4412C17.0068 15.0424 16.6576 14.731 16.3516 14.514C16.0234 14.2812 15.6644 14.0968 15.2942 13.9434L15.5952 13.4416C15.7716 13.5174 15.9452 13.6 16.1154 13.6904C16.558 13.9258 16.9736 14.204 17.3036 14.5936C17.3912 14.6972 17.4702 14.8072 17.5372 14.9246C17.571 14.984 17.6018 15.0452 17.629 15.1078L17.6312 15.113C17.6548 15.168 17.6754 15.224 17.693 15.2812L17.6948 15.2868C17.782 15.577 17.7822 15.8924 17.693 16.1822C17.5512 16.6428 17.2274 16.993 16.9082 17.255C16.753 17.3822 16.5862 17.4978 16.414 17.603C16.0388 17.8322 15.6314 18.0184 15.2142 18.1742C14.9594 18.2694 14.7016 18.3534 14.44 18.4286C13.4916 18.7012 12.5324 18.856 11.539 18.9376C10.7308 19.004 9.9116 19.0164 9.116 18.9798C8.1282 18.9344 7.1398 18.8118 6.1954 18.5932C5.7306 18.4858 5.2734 18.3556 4.817 18.1868C4.3452 18.0126 3.89 17.8048 3.468 17.5304C2.9866 17.2176 2.547 16.8188 2.3434 16.2948C2.1742 15.8592 2.2142 15.3638 2.4514 14.9402C2.644 14.596 2.9354 14.3156 3.2454 14.087C3.6076 13.8198 4.0036 13.6082 4.42 13.4318Z" fill="black"/>
</svg>

<svg id="Слой_1" data-name="Слой 1" xmlns="http://www.w3.org/2000/svg" viewBox="0 0 15.52 18">

<path class="cls-1" d="M3.54,8.64a.18.18,0,0,1,.09,0,.28.28,0,0,1,.12.16.34.34,0,0,1,0,.11,9.62,9.62,0,0,0,.29,2.62,7.38,7.38,0,0,0,1,2.29,4.19,4.19,0,0,0,.49.64l0,.05a5.24,5.24,0,0,0,1.57,1.16A6.6,6.6,0,0,0,10,16.3h.1a.29.29,0,0,1,.18.33.29.29,0,0,1-.23.23H10a8.51,8.51,0,0,1-1.81-.2A6.28,6.28,0,0,1,6.37,16a5.13,5.13,0,0,1-.83-.62A6.32,6.32,0,0,1,4,13.26l-.09-.19h0a9.64,9.64,0,0,1-.65-2.38A10,10,0,0,1,3.18,9V8.91h0a.29.29,0,0,1,0-.1.3.3,0,0,1,.18-.17h.15Z" transform="translate(-2.24 -1)"/>
<path class="cls-1" d="M16.56,8.63l.1,0a.27.27,0,0,1,.13.15.29.29,0,0,1,0,.11,9.79,9.79,0,0,1-.07,1.44c0,.29-.08.59-.14.88a8.74,8.74,0,0,1-.68,2.1A6.23,6.23,0,0,1,14.79,15l-.09.1,0,.05a6,6,0,0,1-1.16.87,6.13,6.13,0,0,1-1.9.69,8.61,8.61,0,0,1-1.58.15H10a.29.29,0,0,1,0-.57.48.48,0,0,1,.12,0,6.75,6.75,0,0,0,2.74-.56,5.1,5.1,0,0,0,1.26-.83,5.86,5.86,0,0,0,1.32-1.78l0-.06h0a8.68,8.68,0,0,0,.75-2.77,8.73,8.73,0,0,0,.07-1.35h0s0-.06,0-.1a.3.3,0,0,1,.16-.19l.1,0Z" transform="translate(-2.24 -1)"/>
<path class="cls-1" d="M10,7.33A25.92,25.92,0,0,1,14,7.6l.17,0a9.72,9.72,0,0,1,1.75.43,2.48,2.48,0,0,1,.56.29l.12.1h0s0,0,0,0l0,0a.42.42,0,0,1,.09.14l0,0h0l0,.1a.35.35,0,0,1,0,.07.47.47,0,0,1,0,.17.43.43,0,0,1,0,.1l0,0-.05.08a.27.27,0,0,1-.07.08l0,.05-.07.06-.1.07a3.09,3.09,0,0,1-.85.37,8.3,8.3,0,0,1-1.24.29,26,26,0,0,1-4.75.32c-.73,0-1.46,0-2.18-.1A17.68,17.68,0,0,1,4.89,10a5.45,5.45,0,0,1-1-.32,2.13,2.13,0,0,1-.44-.26l0,0a1.24,1.24,0,0,1-.18-.22v0l0,0a.59.59,0,0,1,0-.37h0a.1.1,0,0,0,0,0v0l0,0a.91.91,0,0,1,.11-.16l.08-.08A2.38,2.38,0,0,1,4,8.07a8.5,8.5,0,0,1,1.65-.42,24.59,24.59,0,0,1,3.18-.3ZM3.76,8.92l0,0a.91.91,0,0,0,.38.24l.43.16.08,0a14.63,14.63,0,0,0,2.89.47,30.08,30.08,0,0,0,4.65,0,18.45,18.45,0,0,0,2.57-.34c.19,0,.37-.09.56-.15h0a2.68,2.68,0,0,0,.72-.3.41.41,0,0,0,.15-.14l0,0a.89.89,0,0,0-.33-.21,5.88,5.88,0,0,0-1.3-.38A19.08,19.08,0,0,0,11.77,8,31.37,31.37,0,0,0,7.89,8a17.25,17.25,0,0,0-2.77.38,4.24,4.24,0,0,0-1.06.34.72.72,0,0,0-.28.2Zm0,0Z" transform="translate(-2.24 -1)"/>
<path class="cls-1" d="M8.66,1h.05a.27.27,0,0,1,.13.07.94.94,0,0,1,.09.12,2.17,2.17,0,0,1,.43,1.31,2.2,2.2,0,0,1-.45,1.05,1.6,1.6,0,0,0-.41,1,1.72,1.72,0,0,0,.38.9l0,0,0,0a.29.29,0,0,1-.49.28c0-.06-.09-.13-.14-.2a3.45,3.45,0,0,1-.24-.47.45.45,0,0,1,0-.08A1.56,1.56,0,0,1,8,4.17a1.79,1.79,0,0,1,.16-.44.3.3,0,0,0,0-.06c.15-.25.34-.48.48-.74a1,1,0,0,0,.15-.68,2.13,2.13,0,0,0-.36-.78h0l0-.05a.17.17,0,0,1,0-.1A.29.29,0,0,1,8.52,1l.09,0Z" transform="translate(-2.24 -1)"/>
<path class="cls-1" d="M10,1h.05a.27.27,0,0,1,.13.07.94.94,0,0,1,.09.12,2.17,2.17,0,0,1,.43,1.31,2.2,2.2,0,0,1-.45,1.05,1.6,1.6,0,0,0-.41,1,1.72,1.72,0,0,0,.38.9l0,0a.54.54,0,0,1,0,.1.31.31,0,0,1-.22.31.32.32,0,0,1-.28-.08c0-.06-.09-.13-.14-.2a2.6,2.6,0,0,1-.24-.47.45.45,0,0,1,0-.08,1.56,1.56,0,0,1-.07-.88,1.79,1.79,0,0,1,.16-.44.3.3,0,0,0,0-.06c.15-.25.34-.48.48-.74a1,1,0,0,0,.15-.68,2.13,2.13,0,0,0-.36-.78h0l0-.05a.17.17,0,0,1,0-.1A.29.29,0,0,1,9.88,1L10,1Z" transform="translate(-2.24 -1)"/>
<path class="cls-1" d="M11.38,1h0a.27.27,0,0,1,.13.07.94.94,0,0,1,.09.12,2.17,2.17,0,0,1,.43,1.31,2.2,2.2,0,0,1-.45,1.05,1.6,1.6,0,0,0-.41,1,1.72,1.72,0,0,0,.38.9l0,0a.54.54,0,0,1,0,.1.31.31,0,0,1-.22.31.32.32,0,0,1-.28-.08c-.05-.06-.09-.13-.14-.2a2.6,2.6,0,0,1-.24-.47.45.45,0,0,1,0-.08,1.56,1.56,0,0,1-.07-.88,1.79,1.79,0,0,1,.16-.44.3.3,0,0,0,0-.06c.15-.25.34-.48.48-.74a1,1,0,0,0,.15-.68,2.13,2.13,0,0,0-.36-.78h0l0-.05a.17.17,0,0,1,0-.1A.29.29,0,0,1,11.24,1l.09,0Z" transform="translate(-2.24 -1)"/>
<path class="cls-1" d="M4.42,13.43l.34.49-.42.19a4.11,4.11,0,0,0-1,.62,1.76,1.76,0,0,0-.47.62,1,1,0,0,0,0,.76,2,2,0,0,0,.69.8,5.89,5.89,0,0,0,1.48.75A13,13,0,0,0,8,18.31c.48.05,1,.08,1.44.1a18.62,18.62,0,0,0,2.69-.11,14.22,14.22,0,0,0,2.16-.42c.31-.09.62-.19.92-.31a6.35,6.35,0,0,0,.91-.44,3.7,3.7,0,0,0,.67-.51,2.29,2.29,0,0,0,.32-.43,1,1,0,0,0,.06-.75,1.93,1.93,0,0,0-.78-.93,6,6,0,0,0-1.06-.57l.31-.5.52.25a4,4,0,0,1,1.18.9,3.43,3.43,0,0,1,.24.33l.09.19h0a1.15,1.15,0,0,1,.06.17h0a1.5,1.5,0,0,1,0,.89,2.27,2.27,0,0,1-.78,1.07,3.45,3.45,0,0,1-.5.35,6.29,6.29,0,0,1-1.2.57c-.25.1-.51.18-.77.26a14.93,14.93,0,0,1-2.9.51,19.61,19.61,0,0,1-2.42,0,16.55,16.55,0,0,1-2.92-.39,9.47,9.47,0,0,1-1.38-.4,7.34,7.34,0,0,1-1.35-.66,2.76,2.76,0,0,1-1.13-1.24,1.57,1.57,0,0,1,.11-1.35,2.82,2.82,0,0,1,.8-.85A5.6,5.6,0,0,1,4.42,13.43Z" transform="translate(-2.24 -1)"/>
</svg>
